azure-patterns/svg-two-stacked-discs.svg

<svg xmlns="http://www.w3.org/2000/svg" viewBox="0 0 156 157">
                                
                            
<path fill-rule="evenodd" clip-rule="evenodd" d="M148.248 112.316C148.248 126.155 116.792 137.372 77.9978 137.372C39.2032 137.372 7.75 126.155 7.75 112.316V98.8096H148.248V112.316Z" fill="#7FBA00"></path>
<path fill-rule="evenodd" clip-rule="evenodd" d="M148.248 98.811C148.248 112.65 116.792 123.867 77.9978 123.867C39.2032 123.867 7.75 112.65 7.75 98.811C7.75 84.9718 39.2032 73.7552 77.9978 73.7552C116.792 73.7552 148.248 84.9773 148.248 98.811Z" fill="#B8D432"></path>
<path fill-rule="evenodd" clip-rule="evenodd" d="M100.514 97.3693C100.514 101.05 90.432 104.03 77.9936 104.03C65.5552 104.03 55.4728 101.05 55.4728 97.3693C55.4728 93.6882 65.558 90.7081 77.9936 90.7081C90.4292 90.7081 100.514 93.691 100.514 97.3693Z" fill="#7FBA00"></path>
<path fill-rule="evenodd" clip-rule="evenodd" d="M128.778 81.6447C118.936 77.9718 106.006 75.3656 91.4689 74.3567L82.3467 90.9753C86.2686 91.1512 90.157 91.767 93.9393 92.8062L128.778 81.6447Z" fill="#CADD6D"></path>
<path fill-rule="evenodd" clip-rule="evenodd" d="M24.3335 115.113C34.4522 119.382 48.4929 122.428 64.4819 123.536L75.1394 104.111C71.1951 104.001 67.2677 103.489 63.4267 102.582L24.3335 115.113Z" fill="#CADD6D"></path>
<path fill-rule="evenodd" clip-rule="evenodd" d="M148.248 58.3038C148.248 72.143 116.792 83.3596 77.9978 83.3596C39.2032 83.3596 7.75 72.143 7.75 58.3038V44.8H148.248V58.3038Z" fill="#0072C6"></path>
<path fill-rule="evenodd" clip-rule="evenodd" d="M148.25 44.8014C148.25 58.6406 116.794 69.8571 77.9994 69.8571C39.2048 69.8571 7.75159 58.6379 7.75159 44.8014C7.75159 30.965 39.2048 19.7457 77.9994 19.7457C116.794 19.7457 148.25 30.9622 148.25 44.8014Z" fill="#59B4D9"></path>
<path fill-rule="evenodd" clip-rule="evenodd" d="M100.514 43.3598C100.514 47.0409 90.432 50.021 77.9936 50.021C65.5552 50.021 55.4728 47.0409 55.4728 43.3598C55.4728 39.6787 65.558 36.6986 77.9936 36.6986C90.4292 36.6986 100.514 39.6787 100.514 43.3598Z" fill="#0072C6"></path>
<path fill-rule="evenodd" clip-rule="evenodd" d="M128.778 27.4969C118.936 23.824 106.006 21.2151 91.4689 20.2117L82.3467 36.8248C86.2686 37.0034 90.157 37.6193 93.9393 38.6584L128.778 27.4969Z" fill="#83C7E1"></path>
<path fill-rule="evenodd" clip-rule="evenodd" d="M24.3335 60.9632C34.4522 65.2326 48.4929 68.2786 64.4819 69.3865L75.1394 49.9638C71.1951 49.8511 67.2677 49.3398 63.4267 48.4353L24.3335 60.9632Z" fill="#83C7E1"></path>
</svg>

<svg xmlns="http://www.w3.org/2000/svg" viewBox="0 0 156 157"><path fill-rule="evenodd" clip-rule="evenodd" d="M148.248 112.316c0 13.839-31.456 25.056-70.25 25.056-38.795 0-70.248-11.217-70.248-25.056V98.81h140.498v13.506z" fill="#7FBA00"/><path fill-rule="evenodd" clip-rule="evenodd" d="M148.248 98.811c0 13.839-31.456 25.056-70.25 25.056-38.795 0-70.248-11.217-70.248-25.056 0-13.84 31.453-25.056 70.248-25.056 38.794 0 70.25 11.222 70.25 25.056z" fill="#B8D432"/><path fill-rule="evenodd" clip-rule="evenodd" d="M100.514 97.37c0 3.68-10.082 6.66-22.52 6.66-12.439 0-22.521-2.98-22.521-6.66 0-3.682 10.085-6.662 22.52-6.662 12.436 0 22.521 2.983 22.521 6.661z" fill="#7FBA00"/><path fill-rule="evenodd" clip-rule="evenodd" d="M128.778 81.645c-9.842-3.673-22.772-6.28-37.31-7.288l-9.121 16.618c3.922.176 7.81.792 11.592 1.831l34.839-11.161zM24.334 115.113c10.118 4.269 24.159 7.315 40.148 8.423l10.657-19.425a58.021 58.021 0 0 1-11.712-1.529l-39.093 12.531z" fill="#CADD6D"/><path fill-rule="evenodd" clip-rule="evenodd" d="M148.248 58.304c0 13.839-31.456 25.056-70.25 25.056-38.795 0-70.248-11.217-70.248-25.056V44.8h140.498v13.504z" fill="#0072C6"/><path fill-rule="evenodd" clip-rule="evenodd" d="M148.25 44.801c0 13.84-31.456 25.056-70.25 25.056-38.795 0-70.248-11.22-70.248-25.056s31.453-25.055 70.247-25.055c38.795 0 70.251 11.216 70.251 25.055z" fill="#59B4D9"/><path fill-rule="evenodd" clip-rule="evenodd" d="M100.514 43.36c0 3.68-10.082 6.661-22.52 6.661-12.439 0-22.521-2.98-22.521-6.661 0-3.681 10.085-6.661 22.52-6.661 12.436 0 22.521 2.98 22.521 6.66z" fill="#0072C6"/><path fill-rule="evenodd" clip-rule="evenodd" d="M128.778 27.497c-9.842-3.673-22.772-6.282-37.31-7.285l-9.121 16.613c3.922.178 7.81.794 11.592 1.833l34.839-11.161zM24.334 60.963c10.118 4.27 24.159 7.316 40.148 8.423l10.657-19.422a58.393 58.393 0 0 1-11.712-1.529L24.334 60.963z" fill="#83C7E1"/></svg>
